home/.icons/Gruvbox-Plus-Dark/emotes/symbolic/face-hat-symbolic.svg

<svg width="16" height="16" version="1.1" xmlns="http://www.w3.org/2000/svg">
  <defs>
    <style type="text/css" id="current-color-scheme">.ColorScheme-Text { color:#ebdbb2; } .ColorScheme-Highlight { color:#458588; }</style>
  </defs>
  <path class="ColorScheme-Text" fill="currentColor" d="m4 1-0.75 3h9.5l-0.75-3-4 0.5-4-0.5zm-1 4-3 2h16l-3-2h-10zm-1 3c0 3.31 2.69 6 6 6 3.31 0 6-2.69 6-6h-12zm3.5 2h5c0.28 0 0.5 0.22 0.5 0.5 0 0.27-0.22 0.5-0.5 0.5h-5c-0.28 0-0.5-0.23-0.5-0.5 0-0.28 0.22-0.5 0.5-0.5z"/>
</svg>

<svg xmlns="http://www.w3.org/2000/svg" width="16" height="16" version="1.1">
 <path style="fill:#ebdbb2" d="M 4,1 3.25,4 H 12.75 L 12,1 8,1.5 Z M 3,5 0,7 H 16 L 13,5 Z"/>
 <path style="fill:#ebdbb2" d="M 2,8 C 2,11.31 4.69,14 8,14 11.31,14 14,11.31 14,8 Z M 5.5,10 H 10.5 C 10.78,10 11,10.22 11,10.5 11,10.77 10.78,11 10.5,11 H 5.5 C 5.22,11 5,10.77 5,10.5 5,10.22 5.22,10 5.5,10 Z"/>
</svg>
